X: 10741
M: 2/4
L: 1/16
K: C
(3(G,A,B,) |\
c'bag fedc | A6 a2 | gagf e2d2 | c6 H|]
(GA) |\
g2g2 agfe | c'2a2a2f2 | g2(ec) (dc)de | c2e2"^D.C."c2 |]
K: Cm
c2e2g2e2 | d2f2a2f2 | (g2ec) (a2fd) | (c2dc =BGAB) |\
c2e2 g2G2 | BAGA F2d2 | =B2B2 GABG | "^D.C."c6 |]


